!!!OTL: Loakie's Boat
!!!ONM: 127.
**kern
*clefG2
*k[b-]
*F:
*M4/4
*MM80
{4c
=1
4f
4g
4a
4a
=2
4f
4g
4a
4d
=3
4.c
8r
4r}
{4f
=4
4f
4g
4a
4c
=5
4f
4g
4a}
{8f
8f
=6
4g
4e
4c
4g
=7
4a
4f
4c}
=||
{4c
=8
4.f
8r
8f
8f
4g
=9
2.f}
==
*-
!!!CNT: Folksongs of Maritime Canada
!!!MRD: 1928///-1932///
!!!OCL: Helen Creighton
!!!YOR: Songs and Ballads from Nova Scotia
!!!PPR: J.M. Dent & Sons, Limited
!!!PPP: Toronto, Canada
!!!PDT: 1932///
!!!reprint: Dover Publications, 1992: ISBN 0-486-21703-5
!!!ENC1: Craig Stuart Sapp (music and bibliographic data)                       
!!!ENC2: Marcus Pearce (phrase markings and key designations)                   
!!!ENC3: Darrell Conklin (phrase markings and key designations)   
!!!END: 2002/04/10/
!!!EEV: 2004/06/05
!!!MPN: Mr. and Mrs. Edward Hartley
!!!PPG: 274
!!!EFL: 129/152
!!!ARE: Canada; Nova Scotia
!!!verses: 4
!!!VTS: 3936483731
